**kern	**kern	**dynam
*part1	*part1	*part1
*staff2	*staff1	*
*I"Piano	*	*
*clefF4	*clefG2	*
*k[b-e-a-d-]	*k[b-e-a-d-]	*
=1	=1	=1
*^	*	*
8rGG	2.BBB-	4r	.
4BB-	.	.	.
.	.	(4e- 4g 4b-	.
4BB-	.	.	.
.	.	4c) 4e- 4a-	.
8BB-	.	.	.
=	=	=	=
8rGG	2.BBB-	4r	.
4BB-	.	.	.
.	.	(4B- 4e- 4g	.
4BB-	.	.	.
.	.	4A-) 4dn 4f	.
8BB-	.	.	.
=	=	=	=
8EE-L	4EE-	4r	.
8E-J	.	.	.
(8GGGL	4GGG	(4d-X 4b- 4dd-X	<
8EE-J	.	.	.
8BBB-L	4BBB-	4B- 4g 4b-	.
8EE-J	.	.	.
=	=	=	=
8DD-L	4DD-	4G 4e- 4g	.
8EE-J	.	.	.
8CCL	4CC	4A- 4e- 4a-	[
8EE-J	.	.	.
8CC-XL)	4CC-	4A-) 4dn 4f	.
8EE-J	.	.	.
=	=	=	=
*	*	*^	*
8rGG	2.BBB-	4r	4ryy	mp
4EE-	.	.	.	.
.	.	(4a-	2B- 2d-X	.
4EE-	.	.	.	.
.	.	4g)	.	.
8EE-	.	.	.	.
=	=	=	=	=
8rGG	2.AAA-	4r	4ryy	.
4EE-	.	.	.	.
.	.	(4b-	2d- 2e-	.
4EE-	.	.	.	.
.	.	4a-)	.	.
8EE-	.	.	.	.
=	=	=	=	=
8rGG	2.GGG	4r	4ryy	.
4EE-	.	.	.	.
.	.	(4cc	2d- 2e-	.
4EE-	.	.	.	.
.	.	4b-)	.	<
8EE-	.	.	.	.
=	=	=	=	=
(8BBB-L	4BBB-	(4dd-	8dd-L	.
8BB-J	.	.	8d-J	.
8DD-L	4DD-	4b-	8b-L	.
8D-J	.	.	8B-J	.
8EE-L)	4EE-	4g)	8gL	[
8E-J	.	.	8GJ	.
*v	*v	*	*	*
*	*v	*v	*
=	=	=
*-	*-	*-
!!!system-decoration: {(s1,s2)}
